X:1
T:Title
%%score { ( 1 3 ) | ( 2 4 ) }
L:1/8
Q:1/4=132
M:3/4
K:Ab
V:1 treble nm="Grand Piano"
V:3 treble 
V:2 bass 
V:4 bass 
V:1
 [CE]2 [EA]2 B2 | c2 B2 A2 | B2 A2 G2 | [CA]6 | [CA]2 [DB]2 [Ec]2 | e2 d2 c2 | [Fd]2 [Ec]2 [EB]2 | %7
w: E.~L.~Ozendorff * *|||||||
 [Ec]6 | [Fd]2 [DF]2 [Fd]2 | [Ec]2 [CE]2 [Ec]2 | [=DB]2 [DF]2 [DA]2 | [DG]6 | [CE]2 [EA]2 B2 | %13
w: ||||||
 c2 e2 c2 | A2 [DFB]2 [B,EG]2 | [CEA]6 | [Ec]2 [Ec]2 [Ec]2 | c2 [CE]2 z2 | [CE]2 [CA]2 [CF]2 | %19
w: ||||||
 [DG]4 z2 | [Ed]2 [Gd]2 [Fd]2 | [Ed]2 [EG]2 z2 | [CE]2 [EA]2 B2 | c4 z2 | e2 e2 e2 | e2 [Ec]2 z2 | %26
w: |||||||
 [FB]2 [FB]2 [Fc]2 | [Fd]4 z2 | [Fd]2 [Fc]2 [FB]2 | e2 d2 c2 | c4 z2 | [CEA]6 |] %32
w: ||||||
V:2
 [A,,A,]2 [C,A,]2 [E,G,E]2 | [A,E]2 [E,G,D]2 [F,A,C]2 | [D,F,D]2 [E,C]2 [E,B,]2 | [A,,E,]6 | %4
 [A,,A,]2 [A,,A,]2 [A,,A,]2 | [A,CE]2 [G,B,E]2 [A,E]2 | [D,A,]2 [E,A,]2 [E,G,]2 | [A,,A,]6 | %8
 [D,A,]2 [D,A,]2 [D,A,]2 | [A,,A,]2 [A,,A,]2 [A,,A,]2 | [B,,F,]2 [B,,A,]2 [B,,B,]2 | [E,B,]6 | %12
 [A,,A,]2 [C,A,]2 [E,G,E]2 | [A,E]2 [A,CA]2[K:bass] [A,E]2 | [F,CF]2 D,2 E,2 | A,,6 | %16
 A,2 [A,,A,]2 [A,,A,]2 | [A,E]2 [A,,A,]2 z2 | [A,,A,]2 [A,,E,]2 [=A,,E,]2 | [B,,E,]4 z2 | %20
 [E,G,]2 [E,B,]2 [E,A,]2 | [E,G,]2 [E,B,]2 z2 | [A,,A,]2 [C,A,]2 [E,G,E]2 | [A,E]4 z2 | %24
 [A,CA]2 [CEA]2 [B,DA]2 | [A,CA]2[K:bass] [A,,A,]2 z2 | [D,A,]2 [D,A,]2 [C,=A,]2 | [B,,B,]4 z2 | %28
 [B,,B,]2 [C,=A,]2 [D,B,]2 | [E,CE]2 [G,B,E]2 [A,E]2 | E2 z2 z2 | A,,6 |] %32
V:3
 x6 | x6 | x6 | x6 | x6 | x6 | x6 | x6 | x6 | x6 | x6 | x6 | x6 | x6 | x6 | x6 | x6 | x6 | x6 | %19
 x6 | x6 | x6 | x6 | x6 | x6 | x6 | x6 | x6 | x6 | x6 | z2 A2 [DGB]2 | x6 |] %32
V:4
 x6 | x6 | x6 | x6 | x6 | x6 | x6 | x6 | x6 | x6 | x6 | x6 | x6 | x4[K:bass] x2 | x6 | x6 | x6 | %17
 x6 | x6 | x6 | x6 | x6 | x6 | x6 | x6 | x2[K:bass] x4 | x6 | x6 | x6 | x6 | [E,A,]4 E,2 | x6 |] %32

